X:1
T:Palllido il sole
T:Palllido il sole
T:Aria di Artabano da "Artaserse"
T:Johann Adolf Hasse
T:by IMSLP - Public Domain
T:by IMSLP - Public Domain
T:by IMSLP - Public Domain
T:by IMSLP - Public Domain
T:by IMSLP - Public Domain
T:by IMSLP - Public Domain
T:by IMSLP - Public Domain
T:by IMSLP - Public Domain
T:by IMSLP - Public Domain
C:Johann Adolf Hasse
Z:by IMSLP - Public Domain
%%score ( 1 2 ) { ( 3 5 ) | 4 }
L:1/8
Q:1/4=80
M:4/4
K:Eb
V:1 treble nm="Soprano"
V:2 treble 
V:3 treble nm="Harpsichord"
V:5 treble 
V:4 bass 
V:1
 z8 | z8 | z8 | z8 | z8 | z8 | z8 | z8 | z8 | z8 | z8 | z8 |S!p! E2 E E F/E/ F z2 | %13
w: ||||||||||||Pal\- li\- doil so- * le|
 F2 F F G/F/ G z2 |!<(! G2 G G A/G/ A z2 | =A2 A A B/A/ B z2!<)! | =AG F E D/C/ B, z2 | %17
w: tor\- bi\- doil cie- * lo|pe\- na mi\- nac- * cia|mor\- te pre\- pa- * ra,|mor- * te pre\- pa- * ra|
 c c2 _A B E z G | A A2 G F2 z2 |!mp! B B2 D E/D/ E z E | F!<(! F z F G2 z G | %21
w: tut\- to mi spi ra ri\-|mor\- soe or\- ror,|tut\- to mi spi- * ra ri\-|mor\- soe or\- ror, ri\-|
 =A A z A!<)!!f! B2 z2 |!<(! B B2 D E/D/!<)! E2!ff! E | F F z F B,2 z2 | z8 | z8 | z4!p! E2 E E | %27
w: mor\- soe or\- ror,|tut\- to mi spi- * ra ri\-|mor\- soe or\- ror.|||Pal\- li\- doil|
 F/E/ F z2 F2 F F | G/F/ G z2 G2!<(! G G | A/G/!<)! A z2!f! =A2 A A |!p! B/=A/ B z2 c c z c | %31
w: so- * le tor\- bi\- doil|cie- * lo pe\- na mi\-|nac- * cia mor\- te pre\-|pa- * ra, tut\- to mi|
 B/A/ B z B A/G/ A z A | G2 z B A A2 G | GF z2!f! A A2 A | G/A/ B2 A G2 F2 | E2 z2 C2 C A | %36
w: spi- * ra ri\- mor- * soe or\-|ror, ri\- mor\- soe or\-|ror, _ tut- to mi|spi- * ra ri\- mor\- soeor\-|ror tor\- bi\- doil|
 C4 B,2 z2 |!ff! A A2 A G/F/ E z2 |!p! C2 C C C B, z2 |!f! A A2 F G/F/ E z2 | %40
w: cie\-- lo|mor\- te pre\- pa- * ra,|Pal\- li\- doil so\- le|pe\- na mi\- nac- * cia|
!p! B E z E F/E/ F z F |!<(! G G z G A2 z A | =A A z!<)! A!f! B2 z2 |!p! c c2 B/A/ B E z!f! A | %44
w: tu\- to mi spi- * ra ri\-|mor\- soe or\- ror, ri\-|mor\- soe or\- ror,|tut\- to mi- * spi\- ra ri\-|
 G2 F2 E2 z!ff! c |"^ritenuto" B B2 B,"^a tempo" E2 z2 | z8 | z8 | z8 | z8 | z8 | z8 | z8 | z8 | %54
w: mor\- soeor\- ror, ri\-|mor\- soe or\- ror.|||||||||
 z4!fine! |!p! C2 E D/C/ | D/C/ D z D G2 F2 | E/D/ C z2!<(! F2 A G/F/ | G/F/ G z G B2 G2 | %59
w: |Ti\- mor mi _|cin- * ge di fred\- do|ge- * lo do\- lor mi _|ren- * de la vi\- taa|
 A/!<)!G/ F !fermata!z!p! F _G2 =G2 | A/G/ A z!<(! E A2 =A2 | B/=A/ B z F B2 =B2!<)! | %62
w: ma- * ra io stes\- so|fre- * mo io stes\- so,|fre- * o io stes\- so|
!f! c_B/_A/ G F E2 D2 | C2 z"^ritenuto" A E2 !fermata!E2 | C4 !fermata!z4 | z8 | z8 | z8 | z8 | %69
w: fre- * * mo con\- troil mio|cor, con\- troil mi\-|cor.|||||
 z8 | z8 | z4!D.S.! |] %72
w: |||
V:2
 x8 | x8 | x8 | x8 | x8 | x8 | x8 | x8 | x8 | x8 | x8 | x8 | x8 | x8 | x8 | x8 | x8 | x8 | x8 | %19
w: |||||||||||||||||||
 x8 | x8 | x8 | x8 | x8 | x8 | x8 | x8 | x8 | x8 | x8 | x8 | x8 | x8 | x8 | x8 | x8 | x8 | x8 | %38
w: |||||||||||||||||||
 x8 | x8 | x8 | x8 | x8 | x8 | x8 | x8 | x8 | x8 | x8 | x8 | x8 | x8 | x8 | x8 | x4 | x4 | x8 | %57
w: |||||||||||||||||||
 x8 | x8 | x8 | x8 | x8 | x8 | x6 E3/2 C/ | x8 | x8 | x8 | x8 | x8 | x8 | x8 | x4 |] %72
w: ||||||* o|||||||||
V:3
!p! E/B,/B,/B,/ B,/B,/B,/B,/ E/G/F/E/ E/G/F/E/ | F/B,/B,/B,/ B,/B,/B,/B,/ F/A/G/F/ F/A/G/F/ | %2
 G/B,/B,/B,/ B,/B,/B,/B,/ G/B/A/G/ G/B/A/G/ | A/E/E/E/!<(! E/E/E/E/ E/E/e/e/ =A/A/e/e/ | %4
 d/c/!<)! B3 =A/A/e/e/ A/A/e/e/ | d/c/ B2!p! TB c/_A/ e2{d} c | B/G/ E2 B, C/A,/ [CE]2 [A,C] | %7
!<(! (B,/G,/)!wedge!E C/A,/!wedge![CA] (G/E/)(c/B/) B,D!<)! |!f! E/E/e/e/ =A/A/e/e/ d/c/ B2!p! B, | %9
 (C/_A,/) [CE]2 [A,C]!<(! (C/G,/)!wedge!E (C/A,/)!wedge![CA] | %10
 (G/E/)(c/B/) B,!<)!TF G/E/c/B/ B,"^(    )"TF | %11
 G/E/c/B/ B,"^(    )"TD!p! E/B,/B,/B,/ B,/B,/B,/B,/ | E/G/F/E/ E/G/F/E/ F/B,/B,/B,/ B,/B,/B,/B,/ | %13
 F/A/G/F/ F/A/G/F/ G/B,/B,/B,/ B,/B,/B,/B,/ | G/B/A/G/ G/B/A/G/!<(! A/E/E/E/ E/E/E/E/ | %15
 =A/A/e/e/ A/A/e/e/ d/c/ B3!<)! |!f! =A/A/e/e/ A/A/e/e/ d/c/ B2!p! TB | %17
 c/_A/ [ce]2 [Ac] B/G/ E2 G | [B,DA] [B,DA]2 [B,EG] F/F/d/d/ B/B/F/F/ | %19
 D/D/B/B/ D/D/B/B/ E/E/c/c/ E/E/c/c/ | F/=A/d/d/"_cresc." F/A/d/d/ G/B/e/e/ G/B/e/e/ | %21
 =A/c/f/f/ A/c/f/f/!f! B/b/f/d/ B/f/d/B/ | F/B/d/B/ F/D/F/B/ G/B/e/B/ G/E/G/B/ | %23
 F/B/d/f/ d/B/c/!ff!=A/ B/d/c/B/ B/d/c/B/ | c/F/F/F/ F/F/F/F/!p! c/e/d/c/ c/e/d/c/ | %25
 d/F/F/F/ F/F/F/F/ d/f/e/d/ d/f/e/d/ | e/E/E/E/ E/E/E/E/!p! E/G/F/E/ E/G/F/E/ | %27
 F/B,/B,/B,/ B,/B,/B,/B,/ F/A/G/F/ F/A/G/F/ | G/B,/B,/B,/ B,/B,/B,/B,/ G/B/A/G/!<(! G/B/A/G/ | %29
 A/E/E/!<)!E/ E/E/E/E/!f! =A/A/e/e/ A/A/e/e/ |!p! d/b/B/B/ B/B/B/B/ c/c/c/c/ _a/f/d/B/ | %31
 B/B/B/B/ g/e/c/B/ A/A/A/A/ f/d/B/A/ | G/G/G/G/ e/c/A/G/ [DFA] [DFA]2 [EG] | %33
 [EG]/[DF]/[DF]/[DF]/ [DF]/[DF]/[EG]/[EG]/!f! [DFA] [DFA]2 [DF] | %34
 [EG]/[FA]/ [GB]2 [CFA] [B,EG][B,EG][B,DF][B,DF] | %35
"^*)""_*) Si levano le Sordini la 2da Volta Viole" E/[G,B,]/[G,B,]/[G,B,]/ [G,B,]/[G,B,]/[G,B,]/[G,B,]/ [A,C]/[A,C]/[A,C]/[A,C]/ [A,C]/[A,C]/[A,C]/[A,C]/ | %36
 [A,C]/[A,C]/[A,C]/[A,C]/ [A,C]/[A,C]/[A,C]/[A,C]/ [G,B,]/[G,B,]/[B,E]/[B,E]/ [EG]/[EG]/[GB]/[GB]/ | %37
!ff! [fa]/A/a/a/ a/a/g/f/ [Gg]/e/B/G/ e/B/G/E/ | %38
 [CE]/!p![Ac]/[Ac]/[Ac]/ [Ac]/[Ac]/[Ac]/[Ac]/ [Ac]/[GB]/[GB]/[GB]/ [GB]/[GB]/[GB]/[GB]/ | %39
 [fa]/A/a/a/ a/a/g/f/ [Gg]/e/B/G/ B/G/E/B,/ |!p! G,/B,/E/E/ G,/B,/E/E/ A,/B,/F/F/ A,/B,/F/F/ | %41
 B,/D/G/G/ B,/D/G/G/ C/E/A/A/ E/A/e/e/ | =A/A/e/e/ A/A/e/e/!f! d/B/f/d/ b/f/d/B/ | %43
!p! c/_A/ e2{d} c B/G/ E2 [EA] | %44
!f! G/G/E/E/ [DF]/[DF]/[Fd]/[Fd]/ E/E/[Ge]/[Ge]/ [EA]/[EA]/[Ae]/[Ae]/ | %45
 [EG]/[EG]/[Ge]/[Ge]/ [DF]/[DF]/[Fd]/!ff![Fd]/ z/ g/f/e/ e/g/f/e/ | %46
 f/B/B/B/ B/B/B/B/ f/a/g/f/ f/a/g/f/ | g/B/B/B/ B/B/B/B/ g/b/a/g/ g/b/a/g/ | %48
 a/E/E/E/ E/E/E/E/ =A/A/e/e/ A/A/e/e/ | d/c/ B3 =A/A/e/e/ A/A/e/e/ | d/c/ B2 Tc c/_A/ e2{d} c | %51
 B/G/ E2 B, C/A,/ [CE]2 [A,C] | (B,/G,/)!wedge!E!<(! (C/A,/)!wedge![CA] (G/E/)(c/B/) B,TG | %53
 G/E/c/B/!<)! B,TG G/E/c/B/ B,TE | EB, !fermata!E2 |!p! C/E/D/C/ C/E/D/C/ | %56
 D/G,/G,/G,/ G,/G,/G,/G,/ D/F/E/D/ D/F/E/D/ | E/C/C/C/ C/C/C/C/ F/A/G/F/ F/A/G/F/ | %58
 G/C/C/C/ C/C/C/C/ G/B/A/G/ G/B/A/G/ | A/G/F !fermata!z2!p! _G/G/G/G/ =G/G/G/G/ | %60
 A/E/E/E/ E/E/E/E/ A/F/F/F/ =A/F/F/F/ | B/F/F/F/!<(! F/F/F/F/ B/G/G/G/ =B/G/G/G/!<)! | %62
 c_B/_A/ [EG][DF] [CE][CE][=B,D][B,D] | C2[K:bass] C4 !fermata!=B,2 | %64
 [E,G,C]2 !fermata!z2[K:treble]!f!"^(a tempo)" E/G/F/E/ E/G/F/E/ | %65
 F/B,/B,/B,/ B,/B,/B,/B,/ F/A/G/F/ F/A/G/F/ | G/B,/B,/B,/ B,/B,/B,/B,/ G/B/A/G/ G/B/A/G/ | %67
 A/E/E/E/ E/E/E/E/ =A/A/e/e/ A/A/e/e/ | d/c/ B2!p! Tc c/A/ e2{d} c | %69
 B/G/ E2 B, (C/A,/) [CE]2!<(! [A,C] | (B,/G,/)!wedge!E (C/A,/)!wedge!A (G/E/)(c/B/)!<)! B,TF | %71
!p! [G,G]/B,/B,/B,/ B,/B,/B,/B,/ |] %72
V:4
 [E,G,][E,G,][E,G,][E,G,] [E,G,B,][E,G,B,][E,G,B,][E,G,B,] | %1
 [D,F,][D,F,][D,F,][D,F,] [D,F,B,][D,F,B,][D,F,B,][D,F,B,] | %2
 [_D,E,G,][D,E,G,][D,E,G,][D,E,G,] [D,E,G,B,][D,E,G,B,][D,E,G,B,][D,E,G,B,] | %3
 [C,E,A,][C,E,A,][C,E,A,][C,E,A,] [_C,E,=A,][C,E,A,][C,E,A,][C,E,A,] | %4
 [B,,D,F,B,][B,,D,F,B,][B,,D,F,B,][B,,D,F,B,]!f! [_C,E,=A,][C,E,A,][C,E,A,][C,E,A,] | %5
 [B,,D,F,B,][B,,D,F,B,] [G,,E,][G,,E,] [_A,,E,] [A,CE][A,CE][A,CE] | %6
 [G,,E,][G,,E,][G,,E,][G,,E,] [G,,E,][G,,E,][G,,E,][G,,E,] | %7
 [G,,E,][G,,E,] [G,,E,][G,,E,] [B,,E,G,][B,,E,G,] [B,,D,F,][B,,D,F,] | %8
 [E,G,][E,G,] [C,E,=A,][C,E,A,] [B,,D,F,B,][B,,D,F,B,] [G,,E,][G,,E,] | %9
 [_A,,E,][A,,E,][A,,E,][A,,E,] [G,,E,][G,,E,] [A,,E,][A,,E,] | %10
 [B,,E,G,][B,,E,G,] [B,,D,F,][B,,D,B,] E,[A,,E,] B,,[B,,D,] | E,[A,,E,] B,,[B,,F,] [E,G,]2 z2 | %12
 [E,G,B,][E,G,B,][E,G,B,][E,G,B,] [D,F,][D,F,][D,F,][D,F,] | %13
 [D,F,B,][D,F,B,][D,F,B,][D,F,B,] [_D,E,G,][D,E,G,][D,E,G,][D,E,G,] | %14
 [_D,E,G,B,][D,E,G,B,][D,E,G,B,][D,E,G,B,] [C,E,B,][C,E,B,][C,E,B,][C,E,B,] | %15
 [_C,E,=A,][C,E,A,][C,E,A,][C,E,A,] [B,,D,F,B,][B,,D,F,B,][B,,D,F,B,][B,,D,F,B,] | %16
 [_C,E,=A,][C,E,A,][C,E,A,][C,E,A,] [B,,D,F,B,][B,,D,F,B,] [G,,E,][G,,E,] | %17
 [_A,,E,] [A,CE][A,CE][A,CE] [G,,E,][G,,E,] [G,B,][G,B,] | %18
 F,F, E,E, [B,,D,F,B,][B,,D,F,B,][B,,D,F,B,][B,,D,F,B,] | %19
 [D,F,B,][D,F,B,][D,F,B,][D,F,B,] [E,G,C][E,G,C][E,G,C][E,G,C] | %20
 [F,=A,D][F,A,D][F,A,D][F,A,D] [G,B,E][G,B,E][G,B,E][G,B,E] | %21
 [=A,CF][A,CF][A,CF][A,CF] [B,DF][B,DF][B,DF][B,DF] | %22
 [D,F,B,][D,F,B,][D,F,B,][D,F,B,] [E,G,B,][E,G,B,][E,G,B,][E,G,B,] | %23
 [F,B,D][F,B,D][F,B,D][F,=A,C] [B,D][B,D][B,D][B,D] | %24
 [=A,C][A,C][A,C][A,C] [A,CF][A,CF][A,CF][A,CF] | %25
 [B,D][B,D][B,D][B,D] [_A,B,D][A,B,D][A,B,D][A,B,D] | %26
 [A,C][A,C][A,C][A,C] [F,A,C][F,A,C][F,A,C][F,A,C] | %27
 [B,D][B,D][B,D][B,D] [_A,B,D][A,B,D][A,B,D][A,B,D] | %28
 [_D,E,G,][D,E,G,][D,E,G,][D,E,G,] [D,E,G,B,][D,E,G,B,][D,E,G,B,][D,E,G,B,] | %29
 [C,E,A,][C,E,A,][C,E,A,][C,E,A,] [_C,E,=A,][C,E,A,][C,E,A,][C,E,A,] | %30
 [B,,D,F,B,][K:treble] [B,DF][B,DF][B,DF] [B,EG][B,EG][B,EG][B,F_A] | %31
 [B,EG][B,EG][B,CE][B,CE] [B,DF][B,DF][B,D][B,D] | %32
 [B,CE][B,CE][B,C][B,C][K:bass] [B,,B,][B,,B,][B,,B,][B,,B,] | %33
 [B,,B,][B,,B,][B,,B,][B,,B,] [B,,B,][B,,B,][B,,B,][B,,B,] | [E,B,][E,B,] [E,B,]A,, B,,B,,B,,B,, | %35
 [E,,E,][E,,E,][E,,E,][E,,E,] [E,,E,][E,,E,][E,,E,][E,,E,] | %36
 [E,,E,][E,,E,][E,,E,][E,,E,] [E,,E,][E,,E,][E,,E,][E,,E,] | %37
 [B,,,B,,][K:treble] [B,DF][B,DF][B,DA][K:bass] [E,B,E][E,G,B,][E,G,B,][E,G,B,] | %38
 E,,E,E,E, E,E,E,E, | %39
 [B,,,B,,][K:treble] [B,DF][B,DF][B,DF][K:bass] [E,B,E][E,G,B,][E,G,B,][E,G,] | %40
 [G,,B,,E,][G,,B,,E,][G,,B,,E,][G,,B,,E,] [A,,C,F,][A,,C,F,][A,,C,F,][A,,C,F,] | %41
 [B,,D,G,][B,,D,G,][B,,D,G,][B,,D,G,] [C,E,A,][C,E,A,][C,E,A,][C,E,A,] | %42
 [_C,E,=A,][C,E,A,][C,E,A,][C,E,A,] [B,,D,F,B,][B,,D,F,B,][B,,D,F,B,][B,,D,F,B,] | %43
 [_A,,E,] [A,CE][A,CE][A,CE] [G,,E,] [G,B,][G,B,][A,C] | %44
 [B,,B,][B,,B,] [B,,B,][B,,B,] [C,C][C,C] [A,C][A,C] | %45
"^(ritenuto)" B,B,B,B,"^(a tempo)" [E,G,B,E][E,G,B,E][E,G,B,E][E,G,B,E] | %46
 [D,F,B,][D,F,B,][D,F,B,][D,F,B,] [D,F,B,][D,F,B,][D,F,B,][D,F,B,] | %47
 [_D,E,G,B,][D,E,G,B,][D,E,G,B,][D,E,G,B,] [D,E,G,B,][D,E,G,B,][D,E,G,B,][D,E,G,B,] | %48
 [C,E,A,][C,E,A,][C,E,A,][C,E,A,] [_C,E,=A,][C,E,A,][C,E,A,][C,E,A,] | %49
 [B,,D,F,B,][B,,D,F,B,][B,,D,F,B,][B,,D,F,B,] [_C,E,=A,][C,E,A,][C,E,A,][C,E,A,] | %50
 [B,,D,F,B,][B,,D,F,B,] [G,,E,][G,,E,] [_A,,E,] [A,CE][A,CE][A,CE] | %51
 [G,,E,][G,,E,][G,,E,][G,,E,] [A,,E,][A,,E,][A,,E,][A,,E,] | %52
 [G,,E,][G,,E,] [A,,E,][A,,E,] [B,,E,G,][B,,E,G,] [B,,D,F,][B,,D,B,] | %53
 E,[A,,E,] B,,[B,,D,] E,[A,,E,] B,,[B,,F,] | !fermata![E,,B,,E,]4 | %55
 [C,E,G,][C,E,G,][C,E,G,][C,E,G,] | %56
 [=B,,D,][B,,D,][B,,D,][B,,D,] [B,,D,G,][B,,D,G,][B,,D,G,][B,,D,G,] | %57
 [C,E,G,][C,E,G,][B,,C,=E,G,][B,,C,E,G,] [A,,C,F,][A,,C,F,] [F,,A,,C,F,][F,,A,,C,F,] | %58
 [C,=E,G,][C,E,G,][C,E,G,][C,E,G,] [C,E,G,B,][C,E,G,B,][C,E,G,B,][C,E,G,B,] | %59
 [F,A,]2 !fermata!z2 [E,B,][E,B,][_D,E,B,][D,E,B,] | %60
 [C,E,A,][C,E,A,][C,E,A,][C,E,A,] [F,A,C][F,A,C] [E,F,=A,C][E,F,A,C] | %61
 [D,F,B,][D,F,B,][D,F,B,][D,F,B,] [G,B,D][G,B,D] [F,G,=B,D][F,G,B,D] | %62
 [E,G,C][D,_B,] [E,B,][F,A,] G,G,G,G, | A,A,,"^(ritenuto)" F,,F,, !fermata!G,,4 | %64
 [C,,C,]2 !fermata!z2 [E,G,B,][E,G,B,][E,G,B,][E,G,B,] | %65
 [D,F,][D,F,][D,F,][D,F,] [D,F,B,][D,F,B,][D,F,B,][D,F,B,] | %66
 [_D,E,G,][D,E,G,][D,E,G,][D,E,G,] [D,E,G,B,][D,E,G,B,][D,E,G,B,][D,E,G,B,] | %67
 [C,E,A,][C,E,A,][C,E,A,][C,E,A,] [_C,E,=A,][C,E,A,][C,E,A,][C,E,A,] | %68
 [B,,D,F,B,][B,,D,F,B,] [G,,E,][G,,E,] [_A,,E,] [A,CE][A,CE][A,CE] | %69
 [G,,E,][G,,E,][G,,E,][G,,E,] [A,,E,][A,,E,][A,,E,][A,,E,] | %70
 [G,,E,][G,,E,] [A,,E,][A,,E,] [B,,E,G,][B,,E,G,] [B,,D,F,][B,,D,F,] | [E,,B,,]2 z2 |] %72
V:5
 x8 | x8 | x8 | x8 | x8 | x8 | x8 | x8 | x8 | x8 | x4 B,E B,B, | B,E B,B, x4 | x8 | x8 | x8 | x8 | %16
 x8 | x8 | x8 | x8 | x8 | x8 | x8 | x8 | x8 | x8 | x8 | x8 | x8 | x8 | x8 | x8 | x8 | x8 | x8 | %35
 x8 | x8 | x8 | x8 | x8 | x8 | x8 | x8 | x8 | x8 | x8 | x8 | x8 | x8 | x8 | x8 | x8 | x8 | %53
 B,E B,B, B,E B,E | G,4 | x4 | x8 | x8 | x8 | x8 | x8 | x8 | z F x6 | %63
 x2[K:bass] [F,A,]2 [E,G,]2 [D,G,]2 | x4[K:treble] x4 | x8 | x8 | x8 | x8 | x8 | x8 | x4 |] %72

